symbols/web/shopping_cart/materialsymbolsrounded/shopping_cart_gradN25fill1_40px.svg

<svg xmlns="http://www.w3.org/2000/svg" height="40" width="40"><path d="M11.958 36.375q-1.25 0-2.125-.896t-.875-2.146q0-1.25.875-2.145.875-.896 2.125-.896t2.146.896q.896.895.896 2.145t-.896 2.146q-.896.896-2.146.896Zm16.417 0q-1.25 0-2.125-.896t-.875-2.146q0-1.25.875-2.145.875-.896 2.125-.896t2.146.896q.896.895.896 2.145t-.896 2.146q-.896.896-2.146.896Zm-16.667-8.5q-1.791 0-2.583-1.271-.792-1.271 0-2.729l2.5-4.625L5.458 6.208H3.542q-.542 0-.917-.395-.375-.396-.375-.938 0-.542.396-.937.396-.396.937-.396h2.75q.375 0 .709.208.333.208.458.542l1.208 2.5h24.125q1.25 0 1.625.833t-.166 1.792l-5.584 10.041q-.375.75-1.125 1.25t-1.625.5H13.542l-2.167 4.042h18.792q.5 0 .875.396t.375.937q0 .542-.396.917t-.896.375Z"/></svg>

<svg xmlns="http://www.w3.org/2000/svg" height="40" width="40"><path d="M11.958 36.375Q10.708 36.375 9.833 35.479Q8.958 34.583 8.958 33.333Q8.958 32.083 9.833 31.188Q10.708 30.292 11.958 30.292Q13.208 30.292 14.104 31.188Q15 32.083 15 33.333Q15 34.583 14.104 35.479Q13.208 36.375 11.958 36.375ZM28.375 36.375Q27.125 36.375 26.25 35.479Q25.375 34.583 25.375 33.333Q25.375 32.083 26.25 31.188Q27.125 30.292 28.375 30.292Q29.625 30.292 30.521 31.188Q31.417 32.083 31.417 33.333Q31.417 34.583 30.521 35.479Q29.625 36.375 28.375 36.375ZM11.708 27.875Q9.917 27.875 9.125 26.604Q8.333 25.333 9.125 23.875L11.625 19.25L5.458 6.208H3.542Q3 6.208 2.625 5.813Q2.25 5.417 2.25 4.875Q2.25 4.333 2.646 3.938Q3.042 3.542 3.583 3.542H6.333Q6.708 3.542 7.042 3.75Q7.375 3.958 7.5 4.292L8.708 6.792H32.833Q34.083 6.792 34.458 7.625Q34.833 8.458 34.292 9.417L28.708 19.458Q28.333 20.208 27.583 20.708Q26.833 21.208 25.958 21.208H13.542L11.375 25.25Q11.375 25.25 11.375 25.25Q11.375 25.25 11.375 25.25H30.167Q30.667 25.25 31.042 25.646Q31.417 26.042 31.417 26.583Q31.417 27.125 31.021 27.5Q30.625 27.875 30.125 27.875Z"/></svg>
